Default.style/firepit.svg

<svg xmlns="http://www.w3.org/2000/svg" width="26" height="30" viewBox="0 0 26 30">
  <path fill="gray" d="M11.7226562,1.9765625 C14.989687,8.6820988 -2.1511344,13.0760968 12.7539062,22.261718 L13.3984376,22.027344 C9.6872756,16.65671 24.748876,10.3609616 11.7226562,1.9765625 Z M18.5,8.8476562 C20.600822,15.0231114 13.4278304,16.7925402 15.6796876,21.1953124 L19.0585938,19.96875 C20.414198,16.6618088 23.886102,13.9953656 18.5,8.8476562 Z M2.9492188,19.9960938 C2.46751408,20.0133655 2.06666311,20.371777 1.99581636,20.8485562 C1.92496961,21.3253355 2.20428636,21.7848162 2.6601562,21.9414062 L11.0898438,25.007812 L2.6640624,28.070312 C2.1506099,28.2558452 1.88477879,28.8224851 2.070312,29.3359376 C2.25584521,29.8493901 2.8224851,30.1152212 3.3359376,29.929688 L13.9804688,26.058594 L24.660156,29.941406 C25.1800802,30.1290966 25.7537153,29.8597681 25.941406,29.339844 C26.1290966,28.8199198 25.8597682,28.2462847 25.339844,28.058594 L16.9101562,24.992188 L25.335938,21.9296876 C25.7898739,21.7716273 26.0642989,21.3099291 25.9862159,20.8356466 C25.9081328,20.361364 25.5001808,20.0120082 25.019532,20.0078124 C24.8982104,20.0066529 24.777712,20.0278394 24.664062,20.0703124 L14.0195312,23.941406 L3.3398438,20.0585938 C3.21509575,20.0119592 3.08228976,19.9907102 2.9492188,19.9960938 L2.9492188,19.9960938 Z"/>
</svg>

<svg xmlns="http://www.w3.org/2000/svg" width="26" height="30"><path fill="gray" d="M11.723 1.977c3.267 6.705-13.874 11.1 1.03 20.285l.645-.235c-3.71-5.37 11.35-11.666-1.675-20.05Zm6.777 6.87c2.1 6.176-5.072 7.946-2.82 12.348l3.379-1.226c1.355-3.307 4.827-5.974-.559-11.121ZM2.95 19.998a1 1 0 0 0-.29 1.944l8.43 3.067-8.426 3.062a.989.989 0 0 0 .672 1.86l10.644-3.871 10.68 3.882a1 1 0 0 0 .68-1.882l-8.43-3.067 8.426-3.062a.988.988 0 1 0-.672-1.86L14.02 23.941 3.34 20.06a1 1 0 0 0-.39-.063Z"/></svg>
